!!!OTL: Seiwerlein (5), S. 37
!!!id: T0106
**kern
*clefG2
*k[b-]
*F:
{8d
=1
4f
8f
8cc
8cc
8cc
=2
8dd
8cc
8dd
4cc}
=3
{8cc
=4
8cc
8b-
8a
8b-
8a
8g
=5
8.cc
16b-
8a
4g}
=6
{8cc
=7
8dd
8cc
8g
8a
8b-
8cc
=8
8a
4f}
4.r
=9
{4b-
8a
8g
8a
8b-
=10
8cc
8cc
8cc
8g
8a
8b-
=11
8a
4f}
4r
==
*-
!!!minrhy: 16
!!!meters: 6/8 ]  ZZ[4
!!!cut: Seiwerlein (5), S. 37
!!!reg: Luxemburg
!!!trd: Singendes Volk, Esch-Alzette 1937 posth.
!!!rhy1: X_  X__X_X_X_X_  X_X_X_X__
!!!rhy2: X_  X_X_X_X_X_X_  X_.XX_X__
!!!key: T0106  16  F 6/8 ]  ZZ[4
!!!mod: SECHSTONSKALA DUR ?]  AMBITUS[8
!!!kad: 5211
!!!akz: 1565_5452_633_42523_
!!!fot: 'a__b__c__d__
!!!for: 'a__b__c__aw_
!!!fok: '/__\__Sd_Sd_
!! PHRAS[VORWIEGEND AUFTAKTIG]
!!!fkt: "erz&auml;hlende Lieder"
!!!bem1: HEFFINGEN; gesungen von fff Anna und Elisabeth
!!!bem2: Kimmel am 28.8.1934
!! THILL, Mathias:
!! PR[36] 2K[0] 2G[2] 3K[2] 3G[2] 4A[2] 4Ü[0] 5A[2] 6K[1] 6G[2]
!! 7K[1] 7G[0] 8A[0] MEHR[0] SI[17] ABS[83] SR[2] SP[14]
!! ST[24] 2k[12] 2g[33] 3k[0] 3g[0] 4d[2] 4ü[0] 5d[0] 6k[0] 6g[0]
!! 7k[0] 7g[0] 8d[0] mehr[0] si[47] dm[-30] sr[45] sp[2]
!! 1F[2] 2F[81] 3F[14] 4F[0] LF[0] 2P[2] 3P[0] 4P[0] TRI[0] DF[4] AB[84]
!! TF[0] U3K[0] U3[0] U4[0] U4Ü[0] U5[0] U6K[0] U6[0] U7K[0] U7[0]
!! N1[19] N2K[0] N2[17] N3K[0] N3[12] N4[10] N4Ü[0] N5[24] N6K[0] N6[12]
!!!n7k: 0] N7[2] O1[5] O2K[0] O2[0] O3K[0] O3[0] HÖ[0
!!!RNB: symbol: &auml;      = a umlaut  (UTF-8: Å„)
